X:1
T: Lady Mary Montgomery's Reel
C:
R:Strathspey
Q: 128
K:C
M:4/4
L:1/16
|:A2|C3F A3c f4 c3A|d3B c3F EG3 G3B|A3F Af3 d4 c2F2|EG3 d2cB AF3 F2A2|
C3F A3c f4 c3A|d3B c3F EG3 G3B|A3F Af3 d4 c2F2|EG3 d2cB AF3 F2c2|
fefg f3c a3f g3c|B2df A2c2 B2d2 g2b2|f3a gc3 d3f eA3|bg3 c3B AF3 F2c2|
fefg f3c a3f f3c|d3B bagf eg3 c3_e|d3B db3 c3A ca3|BG3 c3B AF3 F2:|
